X: 6646
T: Ceanngulla, The
R: slide
M: 12/8
K: Dmajor
|:c|d2B AFA d2 A d3|e2f g2e fed B2A|
d2B AFA d2 A d2e|fef afd e3 d2:|
|:e/f/|g3 bge f3 afd|e2f g2e fed B2A|
d2B AFA d2 A d2e|fef afd e3 d2:|

